!!!OTL: Graf und Nonne (Die Nonne) Stand ich auf hohen Felsen,
!!!ARE: Europa, Mitteleuropa, Oesterreich / Italia, Suedtirol, Meran, Marling
!!!YOR: 8, S. 92
!!    1941 aufgezeichnet
!!!SCT: Q0155g
!!!YEM: Copyright 1995, estate of Helmut Schaffrath.
**kern
*ICvox
*Ivox
*M6/8
*k[f#]
*G:
{8d
=1
4g
8g
4f#
8g
=2
4.a
4d}
{8d
=3
4a
8a
4g
8a
=4
4.b
4r}
{8dd
=5
4dd
8cc
4e
8cc
=6
4cc
8b
4d}
{8b
=7
4b
8a
4e
8f#
=8
4.g
4r}
{8dd
=9
4dd
8cc
4e
8cc
=10
4cc
8b
4d}
{8b
=11
4b
8a
4e
8f#
=12
4.g
4r}
==
!!!AGN: Ballade, Standesunterschied, vergebliche Werbung, Liebe, Klage, Tod
!!!ONB: ESAC (Essen Associative Code) Database: BALLADE
!!!AMT: compound duple
!!!AIN: vox
!!!EED: Helmut Schaffrath
!!!EEV: 1.0
*-
